data/zhi-mang-xing.svg

<svg width="65.366" height="14" viewBox="0 0 65.366 14" xmlns="http://www.w3.org/2000/svg"><path transform="translate(0 12.32) scale(.014 -.014)" d="m321 722q105 0 139-87 6-17 6-34 0-47-42-90.5t-120.5-110.5-110.5-98q-75-72-75-118 0-28 37-28 74 0 236 27l9 1q13 0 13-13t-6-29q-26-86-195-86-58 0-95 14t-57 60q-12 26-12 55 0 58 49.5 117t141.5 156.5 118 128 26 38.5q0 17-71 17-37 0-107-6-57-34-147-34-25 0-36.5 7.5t-11.5 35.5 7.5 46 38 31.5 98 37.5 81.5 24 19.5-7.5 11.5-24.5l7-17q6-14 19-14z"/><path transform="translate(6.104 12.32) scale(.014 -.014)" d="m311 69q-22-28-38-28t-32 16q-56 65-56 156 0 30 7 62 12 55 12 71t-2 16q-6 0-79-275-9-28-19-28-27 0-64 93-20 44-20 106 0 70 8.5 118t10.5 59.5 7.5 37 7.5 33.5q12 50 16 71-25 0-25 15 0 7 6 15 55 87 78 154 4 17 16 17 16 0 24-31t8-54q0-58-38-93-45-279-45-293t4-14 14.5 18.5 33.5 71 38 77.5q22 37 56 37 54 0 54-101 0-82-38-207-1-4-1-8 0-11 10.5-11t37 29 32 29 5.5-38q0-79-29-121z"/><path transform="translate(10.962 12.32) scale(.014 -.014)" d="m124 562q-4-6-12-6-25 0-25 40t35 112q7 15 9 31t2.5 18.5 1 4 1 4 1 4 1.5 3 2 2.5q3 2 16 2t31-11 18-28q0-33-28-91.5t-53-84.5zm40-508q-21-16-38.5-16t-29 7.5-20.5 24.5q-15 24-29.5 62t-14.5 82 7 89 7 60.5-16 40-16 29.5 3.5 10.5 9 11 11 9.5 12.5 10q23 19 42 19t33.5-13 14-45-15.5-121q-19-114-19-131t9-17q20 0 101 128 11 17 15.5 17t7-25 2.5-66.5-19.5-89-56.5-76.5z"/><path transform="translate(17.15 12.32) scale(.014 -.014)" d="m714 339q-16-190-95-278-26-29-85-31-72 26-72 127 0 18 4 45.5t67 387.5q-88-178-113-434-3-30-5-45-4-32-27-32-31 0-66 47-12 16-12 40t1.5 53 5.5 64 6 56 9.5 64 9.5 55.5 11.5 63.5 10.5 57q-15-15-26.5-45t-18.5-48.5-14-44.5-12-45-11.5-46-9.5-41q-7-26-23-97t-20.5-89.5-7-30-4-16-5.5-12.5q-8-14-25.5-14t-30 12.5-16.5 22-10.5 27-6.5 27.5 6 35 14.5 62 11 47.5 10 44.5 10.5 48 9 44.5 9 48 8 45 8 48.5q10 66 12 92v7q0 18-8 18t-26-28-25-43-10-41q-14-139-72-226-7-10-22-10t-31.5 16-16.5 33q0 102 69 236 27 51 44 151 27-40 33.5-53t14.5-13q4 0 18 12t41.5 12 44.5-14 21.5-32 6.5-54q6 5 21 19 32 28 56.5 28t44-26.5 17.5-54.5q12 14 44 69 23 36 61 36 63 0 63-57 0-26-24-144t-35-194.5-11-144.5v-19q33 28 64.5 70.5t46.5 68 47 82.5q9 14 12 14 5 0 5-11t-1-22z"/><path transform="translate(27.16 12.32) scale(.014 -.014)" d="m112 35q-31 0-56 38-7 10-15 31.5t-19.5 39.5-11.5 48.5 12 54.5q82 162 173 222 12 9 28 9t40-18q14-14 17-24 5-22 5-27 35-12 35-44 0-22-12-99.5t-14-115.5q0-21 14-21 16 0 57.5 56t47.5 56q10 0 10-33l-2-49q0-28-25-76.5t-64-48.5q-24 0-38 16-5 5-15 20-31 45-42 112-82-147-125-147zm-26 115q101 87 160 263-126-115-160-263z"/><path transform="translate(33.012 12.32) scale(.014 -.014)" d="m249 30q-13 0-25 14-59 71-59 135 0 19 13 87 18 102 18 113.5t-3.5 11.5-7.5-8q-26-46-42-104.5t-21-98.5-11-112q0-25-13-25-6 0-20 11-54 46-54 126 0 34 6.5 94t7.5 83q11 139 27 139 9 0 13-19.5t4-44 1.5-44.5 7.5-20 17 32 32.5 64.5 46.5 32.5 44-11q43-22 43-92 0-24-6-59t-10.5-76.5-4.5-47 4-5.5q8 0 40.5 40t44.5 40q9 0 9-14 0-49-5-85t-36-96.5-61-60.5z"/><path transform="translate(37.926 12.32) scale(.014 -.014)" d="m136-93q0 8 6 10.5t10 5 10 7.5q14 10 23.5 10t16-3 8.5-3q11 0 11 41 5 97 19 229-29-46-76-97.5t-75-51.5-46 25q-33 47-33 108 0 90 95 196 33 36 49.5 51.5t51.5 48 63 32.5 43-20 15-45.5-12-69.5q8-5 8-14.5t-2-19.5q-45-282-50.5-370t-5.5-139l1-53q0-13-7-21.5t-18-8.5-36.5 19.5-48.5 19.5l-23-2q-12 0-12 11l13 93zm114 498q-3 0-7-2-59-29-104-77t-67-107q-4-12-4-21 0-20 15-20 8 0 18 6 46 31 87 82t65 105q5 12 5 23t-8 11z"/><path transform="translate(45.612 12.32) scale(.014 -.014)" d="m421 565q-12 0-18 79-59-87-113-201 0-155 16-218 15-56 45-95 29 19 75 99 11 18 17 18 13 0 13-54.5t-32-118.5q-17-34-53-34-9 0-34 6.5t-49.5 30.5-39.5 59q-23 56-33 134-48-118-70-168.5t-43-50.5q-11 0-29 10-30 16-40 45.5t-10 73.5q0 15 10.5 15t26.5-15l15-16q5 0 9 13 97 212 118 253 0 72-6 139-11 110-30 110-6 0-16-18.5t-31.5-65.5-36-73.5-33-26.5-34 19-15.5 42 30.5 82.5 52.5 84.5q3 18 7 49 7-4 13-31 23 17 48.5 17t50.5-10q78-29 82-106 2-36 2-55 59 101 101 162 14 19 23.5 19t17.5-7.5 16-19 12-14.5q17-15 17-36.5t-18-73.5-34-52z"/><path transform="translate(52.234 12.32) scale(.014 -.014)" d="m124 562q-4-6-12-6-25 0-25 40t35 112q7 15 9 31t2.5 18.5 1 4 1 4 1 4 1.5 3 2 2.5q3 2 16 2t31-11 18-28q0-33-28-91.5t-53-84.5zm40-508q-21-16-38.5-16t-29 7.5-20.5 24.5q-15 24-29.5 62t-14.5 82 7 89 7 60.5-16 40-16 29.5 3.5 10.5 9 11 11 9.5 12.5 10q23 19 42 19t33.5-13 14-45-15.5-121q-19-114-19-131t9-17q20 0 101 128 11 17 15.5 17t7-25 2.5-66.5-19.5-89-56.5-76.5z"/><path transform="translate(55.594 12.32) scale(.014 -.014)" d="m249 30q-13 0-25 14-59 71-59 135 0 19 13 87 18 102 18 113.5t-3.5 11.5-7.5-8q-26-46-42-104.5t-21-98.5-11-112q0-25-13-25-6 0-20 11-54 46-54 126 0 34 6.5 94t7.5 83q11 139 27 139 9 0 13-19.5t4-44 1.5-44.5 7.5-20 17 32 32.5 64.5 46.5 32.5 44-11q43-22 43-92 0-24-6-59t-10.5-76.5-4.5-47 4-5.5q8 0 40.5 40t44.5 40q9 0 9-14 0-49-5-85t-36-96.5-61-60.5z"/><path transform="translate(60.508 12.32) scale(.014 -.014)" d="m136-93q0 8 6 10.5t10 5 10 7.5q14 10 23.5 10t16-3 8.5-3q11 0 11 41 5 97 19 229-29-46-76-97.5t-75-51.5-46 25q-33 47-33 108 0 90 95 196 33 36 49.5 51.5t51.5 48 63 32.5 43-20 15-45.5-12-69.5q8-5 8-14.5t-2-19.5q-45-282-50.5-370t-5.5-139l1-53q0-13-7-21.5t-18-8.5-36.5 19.5-48.5 19.5l-23-2q-12 0-12 11l13 93zm114 498q-3 0-7-2-59-29-104-77t-67-107q-4-12-4-21 0-20 15-20 8 0 18 6 46 31 87 82t65 105q5 12 5 23t-8 11z"/></svg>

<?xml version="1.0" encoding="utf-8" ?>
<svg baseProfile="tiny" height="100%" version="1.2" width="100%" xmlns="http://www.w3.org/2000/svg" xmlns:ev="http://www.w3.org/2001/xml-events" xmlns:xlink="http://www.w3.org/1999/xlink"><defs /><g><path d="M321 722Q426 722 460 635Q466 618 466 601Q466 554 424.0 510.5Q382 467 303.5 400.0Q225 333 193 302Q118 230 118 184Q118 156 155 156Q229 156 391 183L400 184Q413 184 413.0 171.0Q413 158 407 142Q381 56 212 56Q154 56 117.0 70.0Q80 84 60 130Q48 156 48 185Q48 243 97.5 302.0Q147 361 239.0 458.5Q331 556 357.0 586.5Q383 617 383 625Q383 642 312 642Q275 642 205 636Q148 602 58 602Q33 602 21.5 609.5Q10 617 10.0 645.0Q10 673 17.5 691.0Q25 709 55.5 722.5Q86 736 153.5 760.0Q221 784 235.0 784.0Q249 784 254.5 776.5Q260 769 266 752L273 735Q279 721 292 721Z" transform="translate(0.0, 72) scale(0.072, -0.072)" /><path d="M311 69Q289 41 273.0 41.0Q257 41 241 57Q185 122 185 213Q185 243 192 275Q204 330 204.0 346.0Q204 362 202 362Q196 362 123 87Q114 59 104 59Q77 59 40 152Q20 196 20 258Q20 328 28.5 376.0Q37 424 39.0 435.5Q41 447 46.5 472.5Q52 498 54 506Q66 556 70 577Q45 577 45 592Q45 599 51 607Q106 694 129 761Q133 778 145 778Q161 778 169.0 747.0Q177 716 177 693Q177 635 139 600Q94 321 94.0 307.0Q94 293 98.0 293.0Q102 293 112.5 311.5Q123 330 146.0 382.5Q169 435 184 460Q206 497 240 497Q294 497 294 396Q294 314 256 189Q255 185 255 181Q255 170 265.5 170.0Q276 170 302.5 199.0Q329 228 334.5 228.0Q340 228 340 190Q340 111 311 69Z" transform="translate(31.391999999999996, 72) scale(0.072, -0.072)" /><path d="M124 562Q120 556 112 556Q87 556 87.0 596.0Q87 636 122 708Q129 723 131.0 739.0Q133 755 133.5 757.5Q134 760 134.5 761.5Q135 763 135.5 765.5Q136 768 136.5 769.5Q137 771 138.0 772.5Q139 774 140 775Q143 777 156.0 777.0Q169 777 187.0 766.0Q205 755 205 738Q205 705 177.0 646.5Q149 588 124 562ZM164 54Q143 38 125.5 38.0Q108 38 96.5 45.5Q85 53 76 70Q61 94 46.5 132.0Q32 170 32.0 214.0Q32 258 39.0 303.0Q46 348 46.0 363.5Q46 379 30.0 403.5Q14 428 14.0 433.0Q14 438 17.5 443.5Q21 449 26.5 454.5Q32 460 37.5 464.0Q43 468 50 474Q73 493 92.0 493.0Q111 493 125.5 480.0Q140 467 139.5 435.0Q139 403 124 314Q105 200 105.0 183.0Q105 166 114 166Q134 166 215 294Q226 311 230.5 311.0Q235 311 237.5 286.0Q240 261 240.0 219.5Q240 178 220.5 130.5Q201 83 164 54Z" transform="translate(56.37599999999999, 72) scale(0.072, -0.072)" /><path d="M714 339Q698 149 619 61Q593 32 534 30Q462 56 462 157Q462 175 466.0 202.5Q470 230 533 590Q445 412 420 156Q417 126 415 111Q411 79 388 79Q357 79 322 126Q310 142 310.0 166.0Q310 190 311.5 219.0Q313 248 317.0 283.0Q321 318 323.0 339.0Q325 360 332.5 403.0Q340 446 342.0 458.5Q344 471 353.5 522.0Q363 573 364 579Q349 564 337.5 534.0Q326 504 319.0 485.5Q312 467 305.0 441.0Q298 415 293.0 396.0Q288 377 281.5 350.0Q275 323 272 309Q265 283 249.0 212.0Q233 141 228.5 122.5Q224 104 221.5 92.5Q219 81 217.5 76.5Q216 72 212 64Q204 50 186.5 50.0Q169 50 156.5 62.5Q144 75 140.0 84.5Q136 94 129.5 111.5Q123 129 123.0 139.0Q123 149 129.0 174.0Q135 199 143.5 236.0Q152 273 154.5 283.5Q157 294 164.5 328.0Q172 362 175.0 376.0Q178 390 184.0 420.5Q190 451 193.0 468.5Q196 486 201.0 513.5Q206 541 209 562Q219 628 221 654V661Q221 679 213.0 679.0Q205 679 187.0 651.0Q169 623 162.0 608.0Q155 593 152 567Q138 428 80 341Q73 331 58.0 331.0Q43 331 26.5 347.0Q10 363 10 380Q10 482 79 616Q106 667 123 767Q150 727 156.5 714.0Q163 701 171 701Q175 701 189.0 713.0Q203 725 230.5 725.0Q258 725 275.0 711.0Q292 697 296.5 679.0Q301 661 303 625Q309 630 324 644Q356 672 380.5 672.0Q405 672 424.5 645.5Q444 619 442 591Q454 605 486 660Q509 696 547 696Q610 696 610 639Q610 613 586.0 495.0Q562 377 551.0 300.5Q540 224 540 156V137Q573 165 604.5 207.5Q636 250 651.0 275.5Q666 301 698 358Q707 372 710 372Q715 372 715.0 361.0Q715 350 714 339Z" transform="translate(88.19999999999999, 72) scale(0.072, -0.072)" /><path d="M112 35Q81 35 56 73Q49 83 41.0 104.5Q33 126 21.5 144.0Q10 162 10.0 192.5Q10 223 22 247Q104 409 195 469Q207 478 223.0 478.0Q239 478 263 460Q277 446 280 436Q285 414 285 409Q320 397 320 365Q320 343 308.0 265.5Q296 188 294 150Q294 129 308 129Q324 129 365.5 185.0Q407 241 413 241Q423 241 423 208L421 159Q421 131 396.0 82.5Q371 34 332 34Q308 34 294 50Q289 55 279 70Q248 115 237 182Q155 35 112 35ZM86 150Q187 237 246 413Q120 298 86 150Z" transform="translate(139.67999999999998, 72) scale(0.072, -0.072)" /><path d="M249 30Q236 30 224 44Q165 115 165 179Q165 198 178 266Q196 368 196.0 379.5Q196 391 192.5 391.0Q189 391 185 383Q159 337 143.0 278.5Q127 220 122.0 180.0Q117 140 111 68Q111 43 98 43Q92 43 78 54Q24 100 24 180Q24 214 30.5 274.0Q37 334 38 357Q49 496 65 496Q74 496 78.0 476.5Q82 457 82.0 432.5Q82 408 83.5 388.0Q85 368 91.0 368.0Q97 368 108.0 400.0Q119 432 140.5 464.5Q162 497 187.0 497.0Q212 497 231 486Q274 464 274 394Q274 370 268.0 335.0Q262 300 257.5 258.5Q253 217 253.0 211.5Q253 206 257 206Q265 206 297.5 246.0Q330 286 342 286Q351 286 351 272Q351 223 346.0 187.0Q341 151 310.0 90.5Q279 30 249 30Z" transform="translate(169.77599999999998, 72) scale(0.072, -0.072)" /><path d="M136 -93Q136 -85 142.0 -82.5Q148 -80 152.0 -77.5Q156 -75 162 -70Q176 -60 185.5 -60.0Q195 -60 201.5 -63.0Q208 -66 210 -66Q221 -66 221 -25Q226 72 240 204Q211 158 164.0 106.5Q117 55 89.0 55.0Q61 55 43 80Q10 127 10 188Q10 278 105 384Q138 420 154.5 435.5Q171 451 206.0 483.5Q241 516 269.0 516.0Q297 516 312.0 496.0Q327 476 327.0 450.5Q327 425 315 381Q323 376 323.0 366.5Q323 357 321 347Q276 65 270.5 -23.0Q265 -111 265 -162L266 -215Q266 -228 259.0 -236.5Q252 -245 241.0 -245.0Q230 -245 204.5 -225.5Q179 -206 156 -206L133 -208Q121 -208 121 -197L134 -104ZM250 405Q247 405 243 403Q184 374 139.0 326.0Q94 278 72 219Q68 207 68 198Q68 178 83 178Q91 178 101 184Q147 215 188.0 266.0Q229 317 253 371Q258 383 258.0 394.0Q258 405 250 405Z" transform="translate(195.04799999999997, 72) scale(0.072, -0.072)" /><path d="M421 565Q409 565 403 644Q344 557 290 443Q290 288 306 225Q321 169 351 130Q380 149 426 229Q437 247 443 247Q456 247 456.0 192.5Q456 138 424 74Q407 40 371 40Q362 40 337.0 46.5Q312 53 287.5 77.0Q263 101 248 136Q225 192 215 270Q167 152 145.0 101.5Q123 51 102 51Q91 51 73 61Q43 77 33.0 106.5Q23 136 23 180Q23 195 33.5 195.0Q44 195 60 180L75 164Q80 164 84 177Q181 389 202 430Q202 502 196 569Q185 679 166 679Q160 679 150.0 660.5Q140 642 118.5 595.0Q97 548 82.5 521.5Q68 495 49.5 495.0Q31 495 15.5 514.0Q0 533 0.0 556.0Q0 579 30.5 638.5Q61 698 83 723Q86 741 90 772Q97 768 103 741Q126 758 151.5 758.0Q177 758 202 748Q280 719 284 642Q286 606 286 587Q345 688 387 749Q401 768 410.5 768.0Q420 768 428.0 760.5Q436 753 444.0 741.5Q452 730 456 727Q473 712 473.0 690.5Q473 669 455.0 617.0Q437 565 421 565Z" transform="translate(234.576, 72) scale(0.072, -0.072)" /><path d="M124 562Q120 556 112 556Q87 556 87.0 596.0Q87 636 122 708Q129 723 131.0 739.0Q133 755 133.5 757.5Q134 760 134.5 761.5Q135 763 135.5 765.5Q136 768 136.5 769.5Q137 771 138.0 772.5Q139 774 140 775Q143 777 156.0 777.0Q169 777 187.0 766.0Q205 755 205 738Q205 705 177.0 646.5Q149 588 124 562ZM164 54Q143 38 125.5 38.0Q108 38 96.5 45.5Q85 53 76 70Q61 94 46.5 132.0Q32 170 32.0 214.0Q32 258 39.0 303.0Q46 348 46.0 363.5Q46 379 30.0 403.5Q14 428 14.0 433.0Q14 438 17.5 443.5Q21 449 26.5 454.5Q32 460 37.5 464.0Q43 468 50 474Q73 493 92.0 493.0Q111 493 125.5 480.0Q140 467 139.5 435.0Q139 403 124 314Q105 200 105.0 183.0Q105 166 114 166Q134 166 215 294Q226 311 230.5 311.0Q235 311 237.5 286.0Q240 261 240.0 219.5Q240 178 220.5 130.5Q201 83 164 54Z" transform="translate(268.632, 72) scale(0.072, -0.072)" /><path d="M249 30Q236 30 224 44Q165 115 165 179Q165 198 178 266Q196 368 196.0 379.5Q196 391 192.5 391.0Q189 391 185 383Q159 337 143.0 278.5Q127 220 122.0 180.0Q117 140 111 68Q111 43 98 43Q92 43 78 54Q24 100 24 180Q24 214 30.5 274.0Q37 334 38 357Q49 496 65 496Q74 496 78.0 476.5Q82 457 82.0 432.5Q82 408 83.5 388.0Q85 368 91.0 368.0Q97 368 108.0 400.0Q119 432 140.5 464.5Q162 497 187.0 497.0Q212 497 231 486Q274 464 274 394Q274 370 268.0 335.0Q262 300 257.5 258.5Q253 217 253.0 211.5Q253 206 257 206Q265 206 297.5 246.0Q330 286 342 286Q351 286 351 272Q351 223 346.0 187.0Q341 151 310.0 90.5Q279 30 249 30Z" transform="translate(285.912, 72) scale(0.072, -0.072)" /><path d="M136 -93Q136 -85 142.0 -82.5Q148 -80 152.0 -77.5Q156 -75 162 -70Q176 -60 185.5 -60.0Q195 -60 201.5 -63.0Q208 -66 210 -66Q221 -66 221 -25Q226 72 240 204Q211 158 164.0 106.5Q117 55 89.0 55.0Q61 55 43 80Q10 127 10 188Q10 278 105 384Q138 420 154.5 435.5Q171 451 206.0 483.5Q241 516 269.0 516.0Q297 516 312.0 496.0Q327 476 327.0 450.5Q327 425 315 381Q323 376 323.0 366.5Q323 357 321 347Q276 65 270.5 -23.0Q265 -111 265 -162L266 -215Q266 -228 259.0 -236.5Q252 -245 241.0 -245.0Q230 -245 204.5 -225.5Q179 -206 156 -206L133 -208Q121 -208 121 -197L134 -104ZM250 405Q247 405 243 403Q184 374 139.0 326.0Q94 278 72 219Q68 207 68 198Q68 178 83 178Q91 178 101 184Q147 215 188.0 266.0Q229 317 253 371Q258 383 258.0 394.0Q258 405 250 405Z" transform="translate(311.18399999999997, 72) scale(0.072, -0.072)" /></g></svg>
